images/evalueer.svg

<svg height="60" viewBox="0 0 60 60" width="60" xmlns="http://www.w3.org/2000/svg"><g fill="none" fill-rule="evenodd"><path d="m0 0h60v60h-60z" fill="#000"/><path d="m44.1527255 53.5556614c.2058847 0 .3726674-.1647426.3726674-.3681091v-31.5202233c0-.2033664.1667826-.368109.3734653-.368109h1.7284744c.2058848 0 .3726674.1647426.3726674.368109v33.8526316c0 .2656376-.2170568.4800394-.4859838.4800394h-38.02803241c-.26812899 0-.48598379-.2144018-.48598379-.4800394v-47.03992119c0-.26484933.2178548-.48003941.48598379-.48003941h24.09490101c.2058847 0 .3726673.16474259.3726673.36810904v1.70812056c0 .2033664-.1667826.368109-.3726673.368109h-21.7328123c-.2066827 0-.3734654.1647426-.3734654.3681091v42.3751046c0 .2033665.1667827.3681091.3734654.3681091zm-5.1356304-43.381328c-.7588201 1.1150708-1.9582198.4320502-1.9582198-.42172544v-4.7493753c0-.85298145 1.1993997-1.53679619 1.9582198-.42172547.0415792.06115417.0623688.13660411.0623688.21046563v5.17268919c0 .07306729-.0207896.14851729-.0623688.20967139zm4.1705524 2.6555997c-.5101446 0-1.0202893-.2398514-1.0730628-1.1746364-.0055972-.1024531.0375811-.2049062.1103447-.2779735l3.5894033-3.56441412c.5901046-.58612692 1.6111935-.31609554 1.8046967.80929991.0191904.11436623-.0255872.2327035-.107946.31450712l-3.6501729 3.62556829c-.2022987.1342215-.4037979.2676487-.673263.2676487zm7.1253934 3.010135c.0895551 0 .1807095.0293858.2470763.0889515.8379805.7552937.3846075 1.918017-.5701146 1.918017h-4.7816066c-.8595697 0-1.5472255-1.1913149-.425387-1.9450201.0615691-.0412989.1343327-.0619484.2086955-.0619484zm-20.1950113 31.1529634h9.8998446c.8507741 0 1.3657164 1.1674886.4845574 1.921988-.0663668.0571832-.1551223.0849805-.2414791.0849805h-10.356416c-.0735632 0-.1503248-.0214437-.2110944-.0619484-1.122638-.7537052-.4349822-1.9450201.4245875-1.9450201zm9.9001644-7.0909444c.8507742 0 1.3657164 1.1674886.4837579 1.9227822-.0655672.056389-.1543228.0841863-.2414792.0841863h-12.2298782c-.8595698 0-1.5472255-1.1913149-.4245875-1.9450201.0607696-.0412989.1367316-.0619484.2110943-.0619484zm0-7.0904678c.8507742 0 1.3657164 1.1674885.4837579 1.921988-.0655672.0571831-.1543228.0849804-.2414792.0849804h-12.2298782c-.8595698 0-1.5472255-1.1913148-.4245875-1.9450201.0607696-.0412989.1367316-.0619483.2110943-.0619483zm0-7.1575786c.8507742 0 1.3657164 1.1674885.4837579 1.921988-.0663668.0571831-.1543228.0849804-.2414792.0849804h-12.2298782c-.8595698 0-1.5472255-1.1913149-.4245875-1.9450201.0607696-.0412989.1367316-.0619483.2110943-.0619483zm-12.4125868-5.1456861c-1.122638-.7537052-.4341827-1.9450201.4245875-1.9450201h11.9204331c.8595698 0 1.5472256 1.1913149.4245875 1.9450201-.0607696.0412989-.1375312.0619484-.2110943.0619484h-12.3466199c-.0743627 0-.1503247-.0206495-.2118939-.0619484zm-10.6200441 4.0753293-1.8182898-3.0775634c-.3366315-.5345033-.1351324-1.1365144.3366315-1.4041631.5389302-.3343624 1.1450268-.1342215 1.414492.3343624l.9883053 1.6694292c.1519239.257324.5317338.2398514.6604694-.03018l3.6709624-7.7268682c.2694651-.4677897.8763614-.7354384 1.3473256-.4677897.4717639.2676488.741229.8696599.4717639 1.3374495l-4.4449751 9.3653233c-.2694651.4010761-.7412289.6687248-1.2801592.6687248-.5381306 0-1.0098945-.2009351-1.346526-.6687248zm4.662866 18.1307006c-.0591704-.0841863-.1359319-.1604304-.2206895-.219202-2.6682644-1.8513033-5.5812063 1.0420034-3.7173393 3.6922819.0583708.0841863.135932.1604304.2206895.219202 2.6682644 1.8513033 5.5812063-1.0420035 3.7173393-3.6922819zm-6.548722 1.736937c0-2.4755523 2.0205886-4.5492344 4.5793078-4.5492344 3.5030465 0 5.9969982 3.885275 3.6813573 7.366297-.1455272.2184077-.3270363.4129892-.5341326.575008-3.5798082 2.7860884-7.7265325.0953052-7.7265325-3.3920706zm6.3281924-9.8844983c.083958-.0587716.1615191-.1350157.2206895-.219202 1.8638671-2.6502784-1.0490748-5.5435852-3.7173392-3.6922819-.0847576.0579774-.1615192.1350157-.2206896.219202-1.8646666 2.6502785 1.0490749 5.5443794 3.7173393 3.6922819zm-1.7487247-6.5045792c2.5595189 0 4.5801074 2.0736821 4.5801074 4.5484402 0 3.4881699-4.1467243 6.1789531-7.727332 3.3928647-.2070963-.1620188-.3886055-.3566002-.5341326-.575008-2.3148413-3.481022.1791103-7.3662969 3.6813572-7.3662969z" fill="#fff"/></g></svg>

<?xml version="1.0" encoding="UTF-8"?>
<svg width="60px" height="60px" viewBox="0 0 60 60" version="1.1" xmlns="http://www.w3.org/2000/svg" xmlns:xlink="http://www.w3.org/1999/xlink">
    <!-- Generator: Sketch 54.1 (76490) - https://sketchapp.com -->
    <title>evalueer</title>
    <desc>Created with Sketch.</desc>
    <g id="evalueer" stroke="none" stroke-width="1" fill="none" fill-rule="evenodd">
        <rect fill="#000000" x="0" y="0" width="60" height="60"></rect>
        <path d="M44.1527255,53.5556614 C44.3586102,53.5556614 44.5253929,53.3909188 44.5253929,53.1875523 L44.5253929,21.667329 C44.5253929,21.4639626 44.6921755,21.29922 44.8988582,21.29922 L46.6273326,21.29922 C46.8332174,21.29922 47,21.4639626 47,21.667329 L47,55.5199606 C47,55.7855982 46.7829432,56 46.5140162,56 L8.48598379,56 C8.2178548,56 8,55.7855982 8,55.5199606 L8,8.48003941 C8,8.21519008 8.2178548,8 8.48598379,8 L32.5808848,8 C32.7867695,8 32.9535521,8.16474259 32.9535521,8.36810904 L32.9535521,10.0762296 C32.9535521,10.279596 32.7867695,10.4443386 32.5808848,10.4443386 L10.8480725,10.4443386 C10.6413898,10.4443386 10.4746071,10.6090812 10.4746071,10.8124477 L10.4746071,53.1875523 C10.4746071,53.3909188 10.6413898,53.5556614 10.8480725,53.5556614 L44.1527255,53.5556614 Z M39.0170951,10.1743334 C38.258275,11.2894042 37.0588753,10.6063836 37.0588753,9.75260796 L37.0588753,5.00323266 C37.0588753,4.15025121 38.258275,3.46643647 39.0170951,4.58150719 C39.0586743,4.64266136 39.0794639,4.7181113 39.0794639,4.79197282 L39.0794639,9.96466201 C39.0794639,10.0377293 39.0586743,10.1131793 39.0170951,10.1743334 Z M43.1876475,12.8299331 C42.6775029,12.8299331 42.1673582,12.5900817 42.1145847,11.6552967 C42.1089875,11.5528436 42.1521658,11.4503905 42.2249294,11.3773232 L45.8143327,7.81290908 C46.4044373,7.22678216 47.4255262,7.49681354 47.6190294,8.62220899 C47.6382198,8.73657522 47.5934422,8.85491249 47.5110834,8.93671611 L43.8609105,12.5622844 C43.6586118,12.6965059 43.4571126,12.8299331 43.1876475,12.8299331 Z M50.3130409,15.8400681 C50.402596,15.8400681 50.4937504,15.8694539 50.5601172,15.9290196 C51.3980977,16.6843133 50.9447247,17.8470366 49.9900026,17.8470366 L45.208396,17.8470366 C44.3488263,17.8470366 43.6611705,16.6557217 44.783009,15.9020165 C44.8445781,15.8607176 44.9173417,15.8400681 44.9917045,15.8400681 L50.3130409,15.8400681 Z M30.1180296,46.9930315 L40.0178742,46.9930315 C40.8686483,46.9930315 41.3835906,48.1605201 40.5024316,48.9150195 C40.4360648,48.9722027 40.3473093,49 40.2609525,49 L29.9045365,49 C29.8309733,49 29.7542117,48.9785563 29.6934421,48.9380516 C28.5708041,48.1843464 29.2584599,46.9930315 30.1180296,46.9930315 Z M40.018194,39.9020871 C40.8689682,39.9020871 41.3839104,41.0695757 40.5019519,41.8248693 C40.4363847,41.8812583 40.3476291,41.9090556 40.2604727,41.9090556 L28.0305945,41.9090556 C27.1710247,41.9090556 26.483369,40.7177407 27.606007,39.9640355 C27.6667766,39.9227366 27.7427386,39.9020871 27.8171013,39.9020871 L40.018194,39.9020871 Z M40.018194,32.8116193 C40.8689682,32.8116193 41.3839104,33.9791078 40.5019519,34.7336073 C40.4363847,34.7907904 40.3476291,34.8185877 40.2604727,34.8185877 L28.0305945,34.8185877 C27.1710247,34.8185877 26.483369,33.6272729 27.606007,32.8735676 C27.6667766,32.8322687 27.7427386,32.8116193 27.8171013,32.8116193 L40.018194,32.8116193 Z M40.018194,25.6540407 C40.8689682,25.6540407 41.3839104,26.8215292 40.5019519,27.5760287 C40.4355851,27.6332118 40.3476291,27.6610091 40.2604727,27.6610091 L28.0305945,27.6610091 C27.1710247,27.6610091 26.483369,26.4696942 27.606007,25.715989 C27.6667766,25.6746901 27.7427386,25.6540407 27.8171013,25.6540407 L40.018194,25.6540407 Z M27.6056072,20.5083546 C26.4829692,19.7546494 27.1714245,18.5633345 28.0301947,18.5633345 L39.9506278,18.5633345 C40.8101976,18.5633345 41.4978534,19.7546494 40.3752153,20.5083546 C40.3144457,20.5496535 40.2376841,20.570303 40.164121,20.570303 L27.8175011,20.570303 C27.7431384,20.570303 27.6671764,20.5496535 27.6056072,20.5083546 Z M16.9855631,24.5836839 L15.1672733,21.5061205 C14.8306418,20.9716172 15.0321409,20.3696061 15.5039048,20.1019574 C16.042835,19.767595 16.6489316,19.9677359 16.9183968,20.4363198 L17.9067021,22.105749 C18.058626,22.363073 18.4384359,22.3456004 18.5671715,22.075569 L22.2381339,14.3487008 C22.507599,13.8809111 23.1144953,13.6132624 23.5854595,13.8809111 C24.0572234,14.1485599 24.3266885,14.750571 24.0572234,15.2183606 L19.6122483,24.5836839 C19.3427832,24.98476 18.8710194,25.2524087 18.3320891,25.2524087 C17.7939585,25.2524087 17.3221946,25.0514736 16.9855631,24.5836839 Z M21.6484291,42.7143845 C21.5892587,42.6301982 21.5124972,42.5539541 21.4277396,42.4951825 C18.7594752,40.6438792 15.8465333,43.5371859 17.7104003,46.1874644 C17.7687711,46.2716507 17.8463323,46.3478948 17.9310898,46.4066664 C20.5993542,48.2579697 23.5122961,45.3646629 21.6484291,42.7143845 Z M15.0997071,44.4513215 C15.0997071,41.9757692 17.1202957,39.9020871 19.6790149,39.9020871 C23.1820614,39.9020871 25.6760131,43.7873621 23.3603722,47.2683841 C23.214845,47.4867918 23.0333359,47.6813733 22.8262396,47.8433921 C19.2464314,50.6294805 15.0997071,47.9386973 15.0997071,44.4513215 Z M21.4278995,34.5668232 C21.5118575,34.5080516 21.5894186,34.4318075 21.648589,34.3476212 C23.5124561,31.6973428 20.5995142,28.804036 17.9312498,30.6553393 C17.8464922,30.7133167 17.7697306,30.790355 17.7105602,30.8745413 C15.8458936,33.5248198 18.7596351,36.4189207 21.4278995,34.5668232 Z M19.6791748,28.062244 C22.2386937,28.062244 24.2592822,30.1359261 24.2592822,32.6106842 C24.2592822,36.0988541 20.1125579,38.7896373 16.5319502,36.0035489 C16.3248539,35.8415301 16.1433447,35.6469487 15.9978176,35.4285409 C13.6829763,31.9475189 16.1769279,28.062244 19.6791748,28.062244 Z" fill="#FFFFFF"></path>
    </g>
</svg>
